X: 39
T: Xiunshangge huixiaozi you haiburu me
%%abc-version 2.0
%%abcx-abcm2ps-target-version 5.9.1 (29 Sep 2008)
%%abc-creator hum2abc beta
%%abcx-conversion-date 2013/10/02 07:52:29
%%abc-edited-by Helmut Schaffrath
%%humdrum-veritas 1264280983
%%humdrum-veritas-data 1379615386
%%continueall 1
%%barnumbers 0
L: 1/8
M: 4/8
K: A
c' c' f' [I:setbarnb 1]| 
b a a f | 
e> f c' e | 
c4 | 
[M:3/8]c' c' f' | 
[M:4/8]b a a f | 
e> f c' e | 
f4 |]  



